X: 1
T: Bingsj\"opolska fr\aan Havamal
C: R\"oj\aas Jonas
Z: John Chambers <jc@trillian.mit.edu>
M: 3/4
L: 1/16
K: Ddor
A2- \
|:   "Dm"A3G FED^C    D3F  |    "Am"A2A2   cAce "Dm"d3f  \
| "C(Am)"e3d cBce     gage |1,3 "Dm"f4     d3f      edcB :|2,4 "C"c4 "Dm"d8 :|
|: "G"{c}B2d^f  g4       d2e2 | "Dm"f2f2 "(C)"egec "Dm"d3c  \
|  "G"Bcd^f  g2g2     d3e  | "Dm"f2f2 "(C)"egec "Dm"d2b2 \
| "Am"a3g    f2e2 "Dm"d3f  |  "C"egec   "Dm"d8 :|

%%sep 1 1 500

